images/TAUD.svg

<svg height="250" viewBox="0 0 250 250" width="250" xmlns="http://www.w3.org/2000/svg"><path d="m0 23.4375c0-12.945312 10.492188-23.4375 23.4375-23.4375h203.125c12.945312 0 23.4375 10.492188 23.4375 23.4375v203.125c0 12.945312-10.492188 23.4375-23.4375 23.4375h-203.125c-12.945312 0-23.4375-10.492188-23.4375-23.4375zm0 0" fill="#6e4aff"/><g fill="#fff"><path d="m85.578125 209.554688h14.761719l-7.476563-18.304688zm0 0"/><path d="m206.132812 203.820312c0-9.796874-4.964843-14.117187-14.503906-14.117187h-8.507812v29.648437h8.894531c9.347656 0 14.117187-4.1875 14.117187-13.984374zm0 0"/><path d="m23.4375 166.015625c-8.628906 0-15.625 6.996094-15.625 15.625v44.921875c0 8.628906 6.996094 15.625 15.625 15.625h203.125c8.628906 0 15.625-6.996094 15.625-15.625v-44.921875c0-8.628906-6.996094-15.625-15.625-15.625zm49.53125 15.570313v8.183593h-14.824219v37.769531h-9.539062v-37.769531h-14.179688v-8.183593zm44.515625 45.953124h-9.734375l-4.1875-10.183593h-21.078125l-3.996094 10.183593h-9.859375l19.335938-45.953124h9.796875zm24.351563 1.09375c13.210937 0 20.6875-6.894531 20.6875-23.199218v-23.847656h-9.859376v23.523437c0 10.570313-3.226562 14.4375-10.703124 14.4375-7.472657 0-11.019532-3.996094-11.019532-14.4375v-23.523437h-9.796875v23.847656c0 16.304687 6.960938 23.199218 20.691407 23.199218zm73.769531-22.75c0 14.890626-9.023438 21.65625-23.136719 21.65625h-18.691406v-45.953124h18.238281c14.246094 0 23.589844 6.832031 23.589844 21.847656zm0 0" fill-rule="evenodd"/><path d="m74.21875 28.320312h34.179688c0 18.875-15.304688 34.179688-34.179688 34.179688zm0 0"/><path d="m142.578125 28.320312c-18.875 0-34.179687 15.304688-34.179687 34.179688v75.195312h34.179687v-75.195312h34.179687v-34.179688zm0 0"/></g></svg>

<svg xmlns="http://www.w3.org/2000/svg" xmlns:xlink="http://www.w3.org/1999/xlink" width="250px" height="250px" viewBox="0 0 250 250" version="1.1">
<g id="surface1">
<path style=" stroke:none;fill-rule:nonzero;fill:rgb(43.137255%,29.019609%,100%);fill-opacity:1;" d="M 0 23.4375 C 0 10.492188 10.492188 0 23.4375 0 L 226.5625 0 C 239.507812 0 250 10.492188 250 23.4375 L 250 226.5625 C 250 239.507812 239.507812 250 226.5625 250 L 23.4375 250 C 10.492188 250 0 239.507812 0 226.5625 Z M 0 23.4375 "/>
<path style=" stroke:none;fill-rule:nonzero;fill:rgb(100%,100%,100%);fill-opacity:1;" d="M 85.578125 209.554688 L 100.339844 209.554688 L 92.863281 191.25 Z M 85.578125 209.554688 "/>
<path style=" stroke:none;fill-rule:nonzero;fill:rgb(100%,100%,100%);fill-opacity:1;" d="M 206.132812 203.820312 C 206.132812 194.023438 201.167969 189.703125 191.628906 189.703125 L 183.121094 189.703125 L 183.121094 219.351562 L 192.015625 219.351562 C 201.363281 219.351562 206.132812 215.164062 206.132812 205.367188 Z M 206.132812 203.820312 "/>
<path style=" stroke:none;fill-rule:evenodd;fill:rgb(100%,100%,100%);fill-opacity:1;" d="M 23.4375 166.015625 C 14.808594 166.015625 7.8125 173.011719 7.8125 181.640625 L 7.8125 226.5625 C 7.8125 235.191406 14.808594 242.1875 23.4375 242.1875 L 226.5625 242.1875 C 235.191406 242.1875 242.1875 235.191406 242.1875 226.5625 L 242.1875 181.640625 C 242.1875 173.011719 235.191406 166.015625 226.5625 166.015625 Z M 72.96875 181.585938 L 72.96875 189.769531 L 58.144531 189.769531 L 58.144531 227.539062 L 48.605469 227.539062 L 48.605469 189.769531 L 34.425781 189.769531 L 34.425781 181.585938 Z M 117.484375 227.539062 L 107.75 227.539062 L 103.5625 217.355469 L 82.484375 217.355469 L 78.488281 227.539062 L 68.628906 227.539062 L 87.964844 181.585938 L 97.761719 181.585938 Z M 141.835938 228.632812 C 155.046875 228.632812 162.523438 221.738281 162.523438 205.433594 L 162.523438 181.585938 L 152.664062 181.585938 L 152.664062 205.109375 C 152.664062 215.679688 149.4375 219.546875 141.960938 219.546875 C 134.488281 219.546875 130.941406 215.550781 130.941406 205.109375 L 130.941406 181.585938 L 121.144531 181.585938 L 121.144531 205.433594 C 121.144531 221.738281 128.105469 228.632812 141.835938 228.632812 Z M 215.605469 205.882812 C 215.605469 220.773438 206.582031 227.539062 192.46875 227.539062 L 173.777344 227.539062 L 173.777344 181.585938 L 192.015625 181.585938 C 206.261719 181.585938 215.605469 188.417969 215.605469 203.433594 Z M 215.605469 205.882812 "/>
<path style=" stroke:none;fill-rule:nonzero;fill:rgb(100%,100%,100%);fill-opacity:1;" d="M 74.21875 28.320312 L 108.398438 28.320312 C 108.398438 47.195312 93.09375 62.5 74.21875 62.5 Z M 74.21875 28.320312 "/>
<path style=" stroke:none;fill-rule:nonzero;fill:rgb(100%,100%,100%);fill-opacity:1;" d="M 142.578125 28.320312 C 123.703125 28.320312 108.398438 43.625 108.398438 62.5 L 108.398438 137.695312 L 142.578125 137.695312 L 142.578125 62.5 L 176.757812 62.5 L 176.757812 28.320312 Z M 142.578125 28.320312 "/>
</g>
</svg>
